X:15607
T:Slip Jig from Riverdance
M:9/8
L:1/8
C:Bill Whelan
R:slip jig
K:Em
D|:EBB BAG ADD|FGd dcB AGd|fgf dcB ABc|1 dDc DBD AGF:|2 dGe Gdc fga||
b2b bag fga|b2d cdg dga|b2b bag fga|b2d cdg dgb|
d'2d' c'ba bag|afd gec fBd|ecd BcA BGA|F/G/dG AGF G2||
